docs/.gitbook/assets/icon-airplane-landing-16@dark.svg

<svg width="32" height="32" viewBox="0 0 16 16" fill="none" xmlns="http://www.w3.org/2000/svg">
<rect x="0" y="0" width="16" height="16" fill="#181c1f"/>
<path fill-rule="evenodd" clip-rule="evenodd" d="M3.22536 1.07054C3.40564 0.986286 3.61202 0.977133 3.79905 1.0451L4.7555 1.39266C5.70461 1.73755 6.42944 2.55577 6.58224 3.55071L6.65682 4.03639L8.06116 4.5467L8.05813 2.6881C8.05773 2.44326 8.17687 2.21363 8.37729 2.07298C8.5777 1.93233 8.83416 1.89836 9.06428 1.98198L9.85451 2.26914C11.3361 2.80753 12.3888 4.17303 12.3913 5.71813L12.392 6.12045L13.314 6.45547C14.5541 6.90613 15.3307 8.24462 14.8662 9.5257C14.4015 10.8073 12.9471 11.3356 11.7067 10.8848L9.62223 10.1274L5.60262 11.7912C4.95012 12.0613 4.21029 12.0664 3.54233 11.8237L1.49386 11.0793C1.22139 10.9803 1.03038 10.7331 1.00329 10.4445C0.976206 10.1559 1.11789 9.87745 1.36719 9.72948L4.08605 8.11562L1.5661 7.19992C1.17698 7.05852 0.97604 6.62856 1.11718 6.23934L2.83783 1.49432C2.90567 1.30725 3.04507 1.1548 3.22536 1.07054ZM10.8852 5.57289C10.8253 4.84177 10.3341 4.13397 9.5599 3.76947L9.56205 5.0921L10.8852 5.57289ZM3.99213 2.71122L2.78283 6.04609L6.08748 7.24694C6.35995 7.34595 6.55096 7.59313 6.57805 7.88177C6.60513 8.17041 6.46344 8.44881 6.21415 8.59678L3.49529 10.2106L4.05463 10.4139C4.38739 10.5348 4.73915 10.5252 5.02895 10.4052L9.31773 8.62999C9.49088 8.55832 9.68459 8.55407 9.86072 8.61807L12.219 9.47503C12.802 9.68689 13.316 9.40044 13.456 9.01435C13.5962 8.62777 13.3849 8.07723 12.8017 7.86528L11.3867 7.35111L8.55676 6.32276L5.72682 5.29441C5.46927 5.20082 5.28326 4.97421 5.24166 4.70335L5.09962 3.7784C5.0372 3.37198 4.7233 2.97692 4.24321 2.80246L3.99213 2.71122ZM1.00001 14.25C1.00001 13.8358 1.3358 13.5 1.75001 13.5H14.25C14.6642 13.5 15 13.8358 15 14.25C15 14.6642 14.6642 15 14.25 15H1.75001C1.3358 15 1.00001 14.6642 1.00001 14.25Z" fill="#fff"/>
</svg>

<svg xmlns="http://www.w3.org/2000/svg" width="32" height="32" fill="none" viewBox="0 0 16 16"><path fill="#181c1f" d="M0 0h16v16H0z"/><path fill="#fff" fill-rule="evenodd" d="M3.225 1.07a.75.75 0 0 1 .574-.025l.956.348c.95.345 1.674 1.163 1.827 2.158l.075.485 1.404.51-.003-1.858a.75.75 0 0 1 1.006-.706l.79.287c1.482.539 2.535 1.904 2.537 3.45l.001.401.922.335c1.24.451 2.017 1.79 1.552 3.07-.464 1.282-1.919 1.81-3.16 1.36l-2.084-.758-4.02 1.664a2.86 2.86 0 0 1-2.06.033l-2.048-.745a.75.75 0 0 1-.127-1.35l2.719-1.613-2.52-.916a.75.75 0 0 1-.449-.96l1.72-4.746a.75.75 0 0 1 .388-.423m7.66 4.503c-.06-.731-.55-1.439-1.325-1.804l.002 1.323zM3.992 2.71l-1.21 3.335 3.305 1.2a.75.75 0 0 1 .127 1.35L3.495 10.21l.56.203c.332.12.684.111.974-.009L9.318 8.63a.75.75 0 0 1 .543-.012l2.358.857c.583.212 1.097-.075 1.237-.46.14-.387-.071-.938-.654-1.15l-1.415-.514-2.83-1.028-2.83-1.029a.75.75 0 0 1-.485-.59L5.1 3.777c-.063-.406-.377-.801-.857-.976zM1 14.25a.75.75 0 0 1 .75-.75h12.5a.75.75 0 0 1 0 1.5H1.75a.75.75 0 0 1-.75-.75" clip-rule="evenodd"/></svg>
